assets/images/icons/prev-ye.svg

<svg width="30" height="29" viewBox="0 0 30 29" fill="none" xmlns="http://www.w3.org/2000/svg">
<g clip-path="url(#clip0)">
<path d="M9.7859 4.61229C10.2088 4.20345 10.8747 4.20345 11.2976 4.61229C11.7063 5.00732 11.7063 5.66478 11.2976 6.05889L3.63235 13.4686L28.9267 13.4686C29.5163 13.4686 30.0002 13.9217 30.0002 14.4917C30.0002 15.0616 29.5163 15.5294 28.9267 15.5294L3.63235 15.5294L11.2976 22.9254C11.7063 23.3342 11.7063 23.9926 11.2976 24.3867C10.8747 24.7955 10.2088 24.7955 9.7859 24.3867L0.306 15.2228C-0.102649 14.8278 -0.102649 14.1703 0.306 13.7762L9.7859 4.61229Z" fill="#D4AF81"/>
</g>
<defs>
<clipPath id="clip0">
<rect width="30" height="29" fill="white"/>
</clipPath>
</defs>
</svg>

<svg width="30" height="29" fill="none" xmlns="http://www.w3.org/2000/svg"><g clip-path="url(#clip0)"><path d="M9.786 4.612a1.085 1.085 0 011.512 0 1.007 1.007 0 010 1.447l-7.666 7.41h25.295c.59 0 1.073.453 1.073 1.023 0 .57-.484 1.037-1.073 1.037H3.632l7.666 7.396a1.024 1.024 0 010 1.462 1.085 1.085 0 01-1.512 0l-9.48-9.164a1.007 1.007 0 010-1.447l9.48-9.164z" fill="#D4AF81"/></g><defs><clipPath id="clip0"><path fill="#fff" d="M0 0h30v29H0z"/></clipPath></defs></svg>
